symbols/web/ring_volume/materialsymbolssharp/ring_volume_wght700gradN25fill1_24px.svg

<svg xmlns="http://www.w3.org/2000/svg" height="24" width="24"><path d="m4.475 21.775-4.5-4.375q2.375-2.85 5.363-4.325Q8.325 11.6 12.05 11.6q3.7 0 6.675 1.475 2.975 1.475 5.35 4.325L19.6 21.8l-4.325-3.25V14.7q-.825-.25-1.6-.363-.775-.112-1.625-.112-.875 0-1.637.112-.763.113-1.588.363v3.85Zm6.15-14.3V1.9h2.65v5.575Zm6.875 2.9-1.9-1.85 3.95-3.95 1.9 1.825Zm-11.125 0L2.4 6.4l1.9-1.825 3.975 3.95Z"/></svg>

<svg xmlns="http://www.w3.org/2000/svg" height="24" width="24"><path d="M4.475 21.775 -0.025 17.4Q2.35 14.55 5.338 13.075Q8.325 11.6 12.05 11.6Q15.75 11.6 18.725 13.075Q21.7 14.55 24.075 17.4L19.6 21.8L15.275 18.55V14.7Q14.45 14.45 13.675 14.337Q12.9 14.225 12.05 14.225Q11.175 14.225 10.413 14.337Q9.65 14.45 8.825 14.7V18.55ZM10.625 7.475V1.9H13.275V7.475ZM17.5 10.375 15.6 8.525 19.55 4.575 21.45 6.4ZM6.375 10.375 2.4 6.4 4.3 4.575 8.275 8.525Z"/></svg>
